!!!ONB: MCCC : IFC0101_03 : Extracted Monophonic Melody
!!!COM: Chopin, Frédéric
!!!OPR: Scherzo No.2
!!!OMV: 3
!!!SCT: Op.31
!!!ODT: 1837///
**kern
*thru
*staff1
*clefG2
*k[b-]
*F:
*M3/4
*MM132
=1
8.cc
16cc
4cc
4ff
=2
8.ee
16dd
2cc
=3
8.a
16a
4a
4dd
=4
8.cc
16b-
2a
=5
8.f
16f
4f
4b-
=6
8.a
16g
4f
4b-
=7
8.a
16g
4f
4g
=8
8.e
16d
2c
=9
8.cc
16cc
4cc
4ff
=10
8.ee
16dd
2cc
=11
8.a
16a
4a
4dd
=12
8.cc
16b-
2a
=13
8.f
16f
4f
4b-
=14
8.a
16g
4f
4b-
=15
8.a
16g
4f
4g
=16
8d
8e
2f
=17
8.aa
16aa
4aa
4ff
=18
8.ee
16dd
4ee
4cc#
=19
8.aa
16aa
4aa
4ff
=20
8.ee
16dd
2b
=21
8.aa
16aa
4aa
4ff
=22
8.ee
16dd
4ee
4cc#
=23
8.aa
16aa
4aa
4ff
=24
8.ee
16cc#
2a
=25
8.cc
16cc
4cc
4ff
=26
8.ee
16dd
2cc
=27
8.a
16a
4a
4dd
=28
8.cc
16b-
2a
=29
8.f
16f
4f
4b-
=30
8.a
16g
4f
4b-
=31
8.a
16g
4f
4g
=32
8d
8e
2f
=33
*MM188
*k[b-e-]
2.r
=34
2.r
=35
2.r
=36
2.r
=37
4.fff
8eee
8fff
8ddd
=38
8bb-
8ddd
8ccc
8eee
4fff
=39
8bb-
8ddd
8ccc
8eee
8fff
8ddd
=40
8bb-
8ddd
8ccc
8aa
4ff
=41
4.fff
8eee
8fff
8ddd
=42
8bb-
8ddd
8ccc
8eee
4fff
=43
8bb-
8ddd
8ccc
8eee
8fff
8ddd
=44
8bb-
8ddd
8ccc
8bb-
4gg
=45
*MM132
*k[b-]
8.ff
16cc
4cc
4ff
=46
8.ee
16dd
2cc
=47
8.a
16a
4a
4dd
=48
8.cc
16b-
2a
=49
8.f
16f
4f
4b-
=50
8.a
16g
4f
4b-
=51
8.a
16g
4f
4g
=52
8.e
16d
2c
=53
8.cc
16cc
4cc
4ff
=54
8.ee
16dd
2cc
=55
8.a
16a
4a
4dd
=56
8.cc
16b-
2a
=57
8.f
16f
4f
4b-
=58
8.a
16g
4f
4b-
=59
8.a
16g
4f
4g
=60
8d
8e
2f
==
*-
